kora/apps/scalable/substance.svg

<svg clip-rule="evenodd" fill-rule="evenodd" stroke-linejoin="round" stroke-miterlimit="2" viewBox="0 0 48 48" xmlns="http://www.w3.org/2000/svg">
 <linearGradient id="a" x2="1" gradientTransform="matrix(0 -33.6872 33.6872 0 923.28 40.4502)" gradientUnits="userSpaceOnUse">
  <stop stop-color="#d1d7d9" offset="0"/>
  <stop stop-color="#fff" offset="1"/>
 </linearGradient>
 <path d="m39.44 45.668h-30.88c-3.438 0-6.228-2.79-6.228-6.228v-30.88c0-3.438 2.79-6.228 6.228-6.228h30.88c3.438 0 6.228 2.79 6.228 6.228v30.88c0 3.438-2.79 6.228-6.228 6.228z" fill="url(#a)"/>
 <path transform="matrix(.914896 0 0 .914896 2.04249 2.04249)" d="m24 3-18 11v8.5l26.182 8.652-8.182 4.848-10-6v-2l-8-2.5v8.5l18 11 18-11v-8.5l-26.182-8.652 8.182-4.848 10 6v2l8 2.5v-8.5z" fill="#e72022" fill-rule="nonzero"/>
</svg>

<svg xmlns="http://www.w3.org/2000/svg" width="48" height="48" version="1.1">
 <path style="opacity:0.2" d="M 24,4 6,15 V 23.5 L 32.182,32.152 24,37 14,31 V 29 L 6,26.5 V 35 L 24,46 42,35 V 26.5 L 15.818,17.848 24,13 34,19 V 21 L 42,23.5 V 15 Z"/>
 <path style="fill:#e52e38" d="M 24,3 6,14 V 22.5 L 32.182,31.152 24,36 14,30 V 28 L 6,25.5 V 34 L 24,45 42,34 V 25.5 L 15.818,16.848 24,12 34,18 V 20 L 42,22.5 V 14 Z"/>
 <path style="fill:#ffffff;opacity:0.2" d="M 24 3 L 6 14 L 6 15 L 24 4 L 42 15 L 42 14 L 24 3 z M 16.902 17.205 L 15.818 17.848 L 42 26.5 L 42 25.5 L 16.902 17.205 z M 6 25.5 L 6 26.5 L 14 29 L 14 28 L 6 25.5 z M 14 30 L 14 31 L 24 37 L 32.182 32.152 L 31.098 31.795 L 24 36 L 14 30 z"/>
</svg>
